svg/fortinet.svg

<svg xmlns="http://www.w3.org/2000/svg" width="1537" height="1101" version="1.2" viewBox="0 0 1537 1101"><title>fortinet-logo-svg</title><style>.s0{fill:#ee3124}</style><path id="Layer" fill-rule="evenodd" d="m0.2 408.6h434.5v285.8h-434.5zm554.7-406.3h426.8v285.8h-426.8zm0 811h426.8v285.8h-426.8zm545.4-404.7h436v285.8h-436zm-665.6-406.3v287.3h-434.5v-32.4c17-129.8 87.8-231.8 178.7-254.9zm1.6 811v285.8h-268.1c-86.3-27.8-152.5-126.7-167.9-250.3v-35.5zm1100-526.8h-436v-285.8h257.3c90.9 24.7 161.8 126.7 178.7 254.9zm-436 814.1v-285.7h436v35.5c-16.9 123.6-83.2 220.9-167.9 250.2z" class="s0"/></svg>

<svg xmlns="http://www.w3.org/2000/svg" width="1537" height="1101" version="1.2"><path fill-rule="evenodd" d="M.2 408.6h434.5v285.8H.2zM554.9 2.3h426.8v285.8H554.9zm0 811h426.8v285.8H554.9zm545.4-404.7h436v285.8h-436zM434.7 2.3v287.3H.2v-32.4C17.2 127.4 88 25.4 178.9 2.3zm1.6 811v285.8H168.2C81.9 1071.3 15.7 972.4.3 848.8v-35.5zm1100-526.8h-436V.7h257.3c90.9 24.7 161.8 126.7 178.7 254.9zm-436 814.1V814.9h436v35.5c-16.9 123.6-83.2 220.9-167.9 250.2z" style="fill:#ee3124"/></svg>
